images/3232796.svg

<?xml version="1.0" encoding="UTF-8"?>
<svg xmlns="http://www.w3.org/2000/svg" xmlns:xlink="http://www.w3.org/1999/xlink" width="300pt" height="300pt" viewBox="0 0 300 300" version="1.1">
<defs>
<g>
<symbol overflow="visible" id="glyph0-0">
<path style="stroke:none;" d="M 0.546875 1.9375 L 0.546875 -7.75 L 6.046875 -7.75 L 6.046875 1.9375 Z M 1.171875 1.328125 L 5.4375 1.328125 L 5.4375 -7.140625 L 1.171875 -7.140625 Z M 1.171875 1.328125 "/>
</symbol>
<symbol overflow="visible" id="glyph0-1">
<path style="stroke:none;" d="M 4.328125 -7.28125 C 3.546875 -7.28125 2.921875 -6.984375 2.453125 -6.390625 C 1.992188 -5.804688 1.765625 -5.007812 1.765625 -4 C 1.765625 -2.988281 1.992188 -2.1875 2.453125 -1.59375 C 2.921875 -1.007812 3.546875 -0.71875 4.328125 -0.71875 C 5.117188 -0.71875 5.742188 -1.007812 6.203125 -1.59375 C 6.660156 -2.1875 6.890625 -2.988281 6.890625 -4 C 6.890625 -5.007812 6.660156 -5.804688 6.203125 -6.390625 C 5.742188 -6.984375 5.117188 -7.28125 4.328125 -7.28125 Z M 4.328125 -8.171875 C 5.453125 -8.171875 6.351562 -7.789062 7.03125 -7.03125 C 7.707031 -6.28125 8.046875 -5.269531 8.046875 -4 C 8.046875 -2.738281 7.707031 -1.726562 7.03125 -0.96875 C 6.351562 -0.21875 5.453125 0.15625 4.328125 0.15625 C 3.203125 0.15625 2.300781 -0.21875 1.625 -0.96875 C 0.957031 -1.71875 0.625 -2.726562 0.625 -4 C 0.625 -5.269531 0.957031 -6.28125 1.625 -7.03125 C 2.300781 -7.789062 3.203125 -8.171875 4.328125 -8.171875 Z M 4.328125 -8.171875 "/>
</symbol>
<symbol overflow="visible" id="glyph0-2">
<path style="stroke:none;" d="M 1.078125 -8.015625 L 2.546875 -8.015625 L 6.09375 -1.3125 L 6.09375 -8.015625 L 7.15625 -8.015625 L 7.15625 0 L 5.6875 0 L 2.125 -6.703125 L 2.125 0 L 1.078125 0 Z M 1.078125 -8.015625 "/>
</symbol>
</g>
</defs>
<g id="surface54833">
<rect x="0" y="0" width="300" height="300" style="fill:rgb(100%,100%,100%);fill-opacity:1;stroke:none;"/>
<path style="fill:none;stroke-width:1.2;stroke-linecap:butt;stroke-linejoin:miter;stroke:rgb(0%,0%,0%);stroke-opacity:1;stroke-miterlimit:10;" d="M 135.59375 84.699219 L 123.460938 89.804688 "/>
<path style="fill:none;stroke-width:1.2;stroke-linecap:butt;stroke-linejoin:miter;stroke:rgb(100%,0%,0%);stroke-opacity:1;stroke-miterlimit:10;" d="M 123.460938 89.804688 L 111.328125 94.914062 "/>
<path style="fill:none;stroke-width:1.2;stroke-linecap:butt;stroke-linejoin:miter;stroke:rgb(100%,0%,0%);stroke-opacity:1;stroke-miterlimit:10;" d="M 111.328125 94.914062 L 109.683594 107.972656 "/>
<path style="fill:none;stroke-width:1.2;stroke-linecap:butt;stroke-linejoin:miter;stroke:rgb(0%,0%,0%);stroke-opacity:1;stroke-miterlimit:10;" d="M 109.683594 107.972656 L 108.042969 121.035156 "/>
<path style=" stroke:none;fill-rule:nonzero;fill:rgb(100%,100%,100%);fill-opacity:1;" d="M 107.328125 88.414062 L 116.328125 88.414062 L 116.328125 101.414062 L 107.328125 101.414062 Z M 107.328125 88.414062 "/>
<g style="fill:rgb(100%,0%,0%);fill-opacity:1;">
  <use xlink:href="#glyph0-1" x="107.328125" y="98.31543"/>
</g>
<path style="fill:none;stroke-width:1.2;stroke-linecap:butt;stroke-linejoin:miter;stroke:rgb(0%,0%,0%);stroke-opacity:1;stroke-miterlimit:10;" d="M 108.042969 121.035156 L 83.777344 131.25 "/>
<path style="fill:none;stroke-width:1.2;stroke-linecap:butt;stroke-linejoin:miter;stroke:rgb(0%,0%,0%);stroke-opacity:1;stroke-miterlimit:10;" d="M 83.777344 131.25 L 82.136719 144.308594 "/>
<path style="fill:none;stroke-width:1.2;stroke-linecap:butt;stroke-linejoin:miter;stroke:rgb(0%,0%,100%);stroke-opacity:1;stroke-miterlimit:10;" d="M 82.136719 144.308594 L 80.492188 157.371094 "/>
<path style="fill:none;stroke-width:1.2;stroke-linecap:butt;stroke-linejoin:miter;stroke:rgb(0%,0%,100%);stroke-opacity:1;stroke-miterlimit:10;" d="M 80.492188 157.371094 L 68.359375 162.476562 "/>
<path style="fill:none;stroke-width:1.2;stroke-linecap:butt;stroke-linejoin:miter;stroke:rgb(0%,0%,0%);stroke-opacity:1;stroke-miterlimit:10;" d="M 68.359375 162.476562 L 56.230469 167.585938 "/>
<path style="fill:none;stroke-width:1.2;stroke-linecap:butt;stroke-linejoin:miter;stroke:rgb(0%,0%,0%);stroke-opacity:1;stroke-miterlimit:10;" d="M 101.472656 173.277344 L 90.980469 165.324219 "/>
<path style="fill:none;stroke-width:1.2;stroke-linecap:butt;stroke-linejoin:miter;stroke:rgb(0%,0%,100%);stroke-opacity:1;stroke-miterlimit:10;" d="M 90.980469 165.324219 L 80.492188 157.371094 "/>
<path style=" stroke:none;fill-rule:nonzero;fill:rgb(100%,100%,100%);fill-opacity:1;" d="M 76.492188 150.871094 L 84.492188 150.871094 L 84.492188 163.871094 L 76.492188 163.871094 Z M 76.492188 150.871094 "/>
<g style="fill:rgb(0%,0%,100%);fill-opacity:1;">
  <use xlink:href="#glyph0-2" x="76.492188" y="160.772461"/>
</g>
<path style="fill:none;stroke-width:1.2;stroke-linecap:butt;stroke-linejoin:miter;stroke:rgb(0%,0%,0%);stroke-opacity:1;stroke-miterlimit:10;" d="M 58.101562 165.117188 L 47.609375 157.164062 "/>
<path style="fill:none;stroke-width:1.2;stroke-linecap:butt;stroke-linejoin:miter;stroke:rgb(100%,0%,0%);stroke-opacity:1;stroke-miterlimit:10;" d="M 47.609375 157.164062 L 37.121094 149.210938 "/>
<path style="fill:none;stroke-width:1.2;stroke-linecap:butt;stroke-linejoin:miter;stroke:rgb(0%,0%,0%);stroke-opacity:1;stroke-miterlimit:10;" d="M 54.359375 170.054688 L 43.867188 162.101562 "/>
<path style="fill:none;stroke-width:1.2;stroke-linecap:butt;stroke-linejoin:miter;stroke:rgb(100%,0%,0%);stroke-opacity:1;stroke-miterlimit:10;" d="M 43.867188 162.101562 L 33.378906 154.148438 "/>
<path style="fill:none;stroke-width:1.2;stroke-linecap:butt;stroke-linejoin:miter;stroke:rgb(0%,0%,0%);stroke-opacity:1;stroke-miterlimit:10;" d="M 56.230469 167.585938 L 52.945312 193.707031 "/>
<path style=" stroke:none;fill-rule:nonzero;fill:rgb(100%,100%,100%);fill-opacity:1;" d="M 26.25 145.179688 L 35.25 145.179688 L 35.25 158.179688 L 26.25 158.179688 Z M 26.25 145.179688 "/>
<g style="fill:rgb(100%,0%,0%);fill-opacity:1;">
  <use xlink:href="#glyph0-1" x="26.25" y="155.081055"/>
</g>
<path style="fill:none;stroke-width:1.2;stroke-linecap:butt;stroke-linejoin:miter;stroke:rgb(0%,0%,0%);stroke-opacity:1;stroke-miterlimit:10;" d="M 52.945312 193.707031 L 63.433594 201.660156 "/>
<path style="fill:none;stroke-width:1.2;stroke-linecap:butt;stroke-linejoin:miter;stroke:rgb(0%,0%,100%);stroke-opacity:1;stroke-miterlimit:10;" d="M 63.433594 201.660156 L 73.921875 209.613281 "/>
<path style="fill:none;stroke-width:1.2;stroke-linecap:butt;stroke-linejoin:miter;stroke:rgb(0%,0%,0%);stroke-opacity:1;stroke-miterlimit:10;" d="M 58.785156 190.359375 L 67.175781 196.722656 "/>
<path style="fill:none;stroke-width:1.2;stroke-linecap:butt;stroke-linejoin:miter;stroke:rgb(0%,0%,100%);stroke-opacity:1;stroke-miterlimit:10;" d="M 67.175781 196.722656 L 75.566406 203.085938 "/>
<path style="fill:none;stroke-width:1.2;stroke-linecap:butt;stroke-linejoin:miter;stroke:rgb(0%,0%,100%);stroke-opacity:1;stroke-miterlimit:10;" d="M 73.921875 209.613281 L 86.054688 204.503906 "/>
<path style="fill:none;stroke-width:1.2;stroke-linecap:butt;stroke-linejoin:miter;stroke:rgb(0%,0%,0%);stroke-opacity:1;stroke-miterlimit:10;" d="M 86.054688 204.503906 L 98.1875 199.398438 "/>
<path style=" stroke:none;fill-rule:nonzero;fill:rgb(100%,100%,100%);fill-opacity:1;" d="M 69.921875 203.113281 L 77.921875 203.113281 L 77.921875 216.113281 L 69.921875 216.113281 Z M 69.921875 203.113281 "/>
<g style="fill:rgb(0%,0%,100%);fill-opacity:1;">
  <use xlink:href="#glyph0-2" x="69.921875" y="213.014648"/>
</g>
<path style="fill:none;stroke-width:1.2;stroke-linecap:butt;stroke-linejoin:miter;stroke:rgb(0%,0%,0%);stroke-opacity:1;stroke-miterlimit:10;" d="M 98.1875 199.398438 L 119.164062 215.300781 "/>
<path style="fill:none;stroke-width:1.2;stroke-linecap:butt;stroke-linejoin:miter;stroke:rgb(0%,0%,0%);stroke-opacity:1;stroke-miterlimit:10;" d="M 104.027344 196.050781 L 120.808594 208.777344 "/>
<path style="fill:none;stroke-width:1.2;stroke-linecap:butt;stroke-linejoin:miter;stroke:rgb(0%,0%,0%);stroke-opacity:1;stroke-miterlimit:10;" d="M 101.472656 173.277344 L 98.1875 199.398438 "/>
<path style="fill:none;stroke-width:1.2;stroke-linecap:butt;stroke-linejoin:miter;stroke:rgb(0%,0%,0%);stroke-opacity:1;stroke-miterlimit:10;" d="M 119.164062 215.300781 L 131.296875 210.195312 "/>
<path style="fill:none;stroke-width:1.2;stroke-linecap:butt;stroke-linejoin:miter;stroke:rgb(0%,0%,100%);stroke-opacity:1;stroke-miterlimit:10;" d="M 131.296875 210.195312 L 143.429688 205.085938 "/>
<path style="fill:none;stroke-width:1.2;stroke-linecap:butt;stroke-linejoin:miter;stroke:rgb(0%,0%,100%);stroke-opacity:1;stroke-miterlimit:10;" d="M 143.429688 205.085938 L 145.070312 192.027344 "/>
<path style="fill:none;stroke-width:1.2;stroke-linecap:butt;stroke-linejoin:miter;stroke:rgb(0%,0%,0%);stroke-opacity:1;stroke-miterlimit:10;" d="M 145.070312 192.027344 L 146.714844 178.964844 "/>
<path style="fill:none;stroke-width:1.2;stroke-linecap:butt;stroke-linejoin:miter;stroke:rgb(0%,0%,100%);stroke-opacity:1;stroke-miterlimit:10;" d="M 137.613281 201.703125 L 138.925781 191.253906 "/>
<path style="fill:none;stroke-width:1.2;stroke-linecap:butt;stroke-linejoin:miter;stroke:rgb(0%,0%,0%);stroke-opacity:1;stroke-miterlimit:10;" d="M 138.925781 191.253906 L 140.238281 180.804688 "/>
<path style=" stroke:none;fill-rule:nonzero;fill:rgb(100%,100%,100%);fill-opacity:1;" d="M 139.429688 198.585938 L 147.429688 198.585938 L 147.429688 211.585938 L 139.429688 211.585938 Z M 139.429688 198.585938 "/>
<g style="fill:rgb(0%,0%,100%);fill-opacity:1;">
  <use xlink:href="#glyph0-2" x="139.429688" y="208.487305"/>
</g>
<path style="fill:none;stroke-width:1.2;stroke-linecap:butt;stroke-linejoin:miter;stroke:rgb(0%,0%,0%);stroke-opacity:1;stroke-miterlimit:10;" d="M 146.714844 178.964844 L 136.226562 171.011719 "/>
<path style="fill:none;stroke-width:1.2;stroke-linecap:butt;stroke-linejoin:miter;stroke:rgb(0%,0%,100%);stroke-opacity:1;stroke-miterlimit:10;" d="M 136.226562 171.011719 L 125.734375 163.058594 "/>
<path style="fill:none;stroke-width:1.2;stroke-linecap:butt;stroke-linejoin:miter;stroke:rgb(0%,0%,0%);stroke-opacity:1;stroke-miterlimit:10;" d="M 146.714844 178.964844 L 158.847656 173.859375 "/>
<path style="fill:none;stroke-width:1.2;stroke-linecap:butt;stroke-linejoin:miter;stroke:rgb(100%,0%,0%);stroke-opacity:1;stroke-miterlimit:10;" d="M 158.847656 173.859375 L 170.980469 168.75 "/>
<path style="fill:none;stroke-width:1.2;stroke-linecap:butt;stroke-linejoin:miter;stroke:rgb(0%,0%,100%);stroke-opacity:1;stroke-miterlimit:10;" d="M 125.734375 163.058594 L 113.605469 168.167969 "/>
<path style="fill:none;stroke-width:1.2;stroke-linecap:butt;stroke-linejoin:miter;stroke:rgb(0%,0%,0%);stroke-opacity:1;stroke-miterlimit:10;" d="M 113.605469 168.167969 L 101.472656 173.277344 "/>
<path style="fill:none;stroke-width:1.2;stroke-linecap:butt;stroke-linejoin:miter;stroke:rgb(0%,0%,100%);stroke-opacity:1;stroke-miterlimit:10;" d="M 125.714844 169.792969 L 116.007812 173.878906 "/>
<path style="fill:none;stroke-width:1.2;stroke-linecap:butt;stroke-linejoin:miter;stroke:rgb(0%,0%,0%);stroke-opacity:1;stroke-miterlimit:10;" d="M 116.007812 173.878906 L 106.300781 177.964844 "/>
<path style=" stroke:none;fill-rule:nonzero;fill:rgb(100%,100%,100%);fill-opacity:1;" d="M 121.734375 156.558594 L 129.734375 156.558594 L 129.734375 169.558594 L 121.734375 169.558594 Z M 121.734375 156.558594 "/>
<g style="fill:rgb(0%,0%,100%);fill-opacity:1;">
  <use xlink:href="#glyph0-2" x="121.734375" y="166.459961"/>
</g>
<path style="fill:none;stroke-width:1.2;stroke-linecap:butt;stroke-linejoin:miter;stroke:rgb(100%,0%,0%);stroke-opacity:1;stroke-miterlimit:10;" d="M 170.980469 168.75 L 181.46875 176.703125 "/>
<path style="fill:none;stroke-width:1.2;stroke-linecap:butt;stroke-linejoin:miter;stroke:rgb(0%,0%,0%);stroke-opacity:1;stroke-miterlimit:10;" d="M 181.46875 176.703125 L 191.957031 184.65625 "/>
<path style=" stroke:none;fill-rule:nonzero;fill:rgb(100%,100%,100%);fill-opacity:1;" d="M 166.980469 162.25 L 175.980469 162.25 L 175.980469 175.25 L 166.980469 175.25 Z M 166.980469 162.25 "/>
<g style="fill:rgb(100%,0%,0%);fill-opacity:1;">
  <use xlink:href="#glyph0-1" x="166.980469" y="172.151367"/>
</g>
<path style="fill:none;stroke-width:1.2;stroke-linecap:butt;stroke-linejoin:miter;stroke:rgb(0%,0%,0%);stroke-opacity:1;stroke-miterlimit:10;" d="M 191.957031 184.65625 L 216.222656 174.441406 "/>
<path style="fill:none;stroke-width:1.2;stroke-linecap:butt;stroke-linejoin:miter;stroke:rgb(0%,0%,0%);stroke-opacity:1;stroke-miterlimit:10;" d="M 216.222656 174.441406 L 237.199219 190.347656 "/>
<path style="fill:none;stroke-width:1.2;stroke-linecap:butt;stroke-linejoin:miter;stroke:rgb(0%,0%,0%);stroke-opacity:1;stroke-miterlimit:10;" d="M 222.0625 171.09375 L 238.84375 183.820312 "/>
<path style="fill:none;stroke-width:1.2;stroke-linecap:butt;stroke-linejoin:miter;stroke:rgb(0%,0%,0%);stroke-opacity:1;stroke-miterlimit:10;" d="M 219.507812 148.320312 L 216.222656 174.441406 "/>
<path style="fill:none;stroke-width:1.2;stroke-linecap:butt;stroke-linejoin:miter;stroke:rgb(0%,0%,0%);stroke-opacity:1;stroke-miterlimit:10;" d="M 237.199219 190.347656 L 261.464844 180.132812 "/>
<path style="fill:none;stroke-width:1.2;stroke-linecap:butt;stroke-linejoin:miter;stroke:rgb(0%,0%,0%);stroke-opacity:1;stroke-miterlimit:10;" d="M 261.464844 180.132812 L 264.75 154.011719 "/>
<path style="fill:none;stroke-width:1.2;stroke-linecap:butt;stroke-linejoin:miter;stroke:rgb(0%,0%,0%);stroke-opacity:1;stroke-miterlimit:10;" d="M 255.648438 176.746094 L 258.273438 155.851562 "/>
<path style="fill:none;stroke-width:1.2;stroke-linecap:butt;stroke-linejoin:miter;stroke:rgb(0%,0%,0%);stroke-opacity:1;stroke-miterlimit:10;" d="M 264.75 154.011719 L 243.769531 138.105469 "/>
<path style="fill:none;stroke-width:1.2;stroke-linecap:butt;stroke-linejoin:miter;stroke:rgb(0%,0%,0%);stroke-opacity:1;stroke-miterlimit:10;" d="M 243.769531 138.105469 L 219.507812 148.320312 "/>
<path style="fill:none;stroke-width:1.2;stroke-linecap:butt;stroke-linejoin:miter;stroke:rgb(0%,0%,0%);stroke-opacity:1;stroke-miterlimit:10;" d="M 243.75 144.835938 L 224.335938 153.007812 "/>
</g>
</svg>

<svg xmlns="http://www.w3.org/2000/svg" xmlns:xlink="http://www.w3.org/1999/xlink" width="300pt" height="300pt" viewBox="0 0 300 300"><defs><symbol overflow="visible"><path d="M.547 1.938V-7.75h5.5v9.688zm.625-.61h4.266v-8.47H1.171zm0 0"/></symbol><symbol overflow="visible" id="a"><path d="M4.328-7.28c-.78 0-1.406.296-1.875.89-.46.585-.687 1.382-.687 2.39 0 1.012.226 1.813.687 2.406.47.586 1.094.875 1.875.875.79 0 1.414-.288 1.875-.874.457-.593.688-1.394.688-2.406 0-1.008-.23-1.805-.687-2.39-.46-.594-1.086-.89-1.875-.89zm0-.892c1.125 0 2.024.383 2.703 1.14C7.708-6.28 8.048-5.27 8.048-4c0 1.262-.34 2.273-1.016 3.03C6.353-.22 5.454.157 4.33.157S2.3-.22 1.625-.97c-.668-.75-1-1.757-1-3.03 0-1.27.332-2.28 1-3.03.676-.76 1.578-1.142 2.703-1.142zm0 0"/></symbol><symbol overflow="visible" id="b"><path d="M1.078-8.016h1.47l3.546 6.704v-6.704h1.062V0H5.688L2.124-6.703V0H1.078zm0 0"/></symbol></defs><g><path fill="#fff" d="M0 0h300v300H0z"/><path d="M135.594 84.7l-12.133 5.105" stroke-width="1.2" stroke="#000" stroke-miterlimit="10" fill="none"/><path d="M123.46 89.805l-12.132 5.11M111.328 94.914l-1.644 13.06" stroke-width="1.2" stroke="#f00" stroke-miterlimit="10" fill="none"/><path d="M109.684 107.973l-1.64 13.062" stroke-width="1.2" stroke="#000" stroke-miterlimit="10" fill="none"/><path d="M107.328 88.414h9v13h-9zm0 0" fill="#fff"/><use xlink:href="#a" x="107.328" y="98.315" fill="#f00"/><path d="M108.043 121.035L83.777 131.25M83.777 131.25l-1.64 13.06" stroke-width="1.2" stroke="#000" stroke-miterlimit="10" fill="none"/><path d="M82.137 144.31l-1.645 13.06M80.492 157.37l-12.133 5.107" stroke-width="1.2" stroke="#00f" stroke-miterlimit="10" fill="none"/><path d="M68.36 162.477l-12.13 5.11M101.473 173.277l-10.493-7.953" stroke-width="1.2" stroke="#000" stroke-miterlimit="10" fill="none"/><path d="M90.98 165.324l-10.488-7.953" stroke-width="1.2" stroke="#00f" stroke-miterlimit="10" fill="none"/><path d="M76.492 150.87h8v13h-8zm0 0" fill="#fff"/><use xlink:href="#b" x="76.492" y="160.772" fill="#00f"/><path d="M58.102 165.117l-10.493-7.953" stroke-width="1.2" stroke="#000" stroke-miterlimit="10" fill="none"/><path d="M47.61 157.164l-10.49-7.953" stroke-width="1.2" stroke="#f00" stroke-miterlimit="10" fill="none"/><path d="M54.36 170.055l-10.493-7.953" stroke-width="1.2" stroke="#000" stroke-miterlimit="10" fill="none"/><path d="M43.867 162.102l-10.488-7.954" stroke-width="1.2" stroke="#f00" stroke-miterlimit="10" fill="none"/><path d="M56.23 167.586l-3.285 26.12" stroke-width="1.2" stroke="#000" stroke-miterlimit="10" fill="none"/><path d="M26.25 145.18h9v13h-9zm0 0" fill="#fff"/><use xlink:href="#a" x="26.25" y="155.081" fill="#f00"/><path d="M52.945 193.707l10.49 7.953" stroke-width="1.2" stroke="#000" stroke-miterlimit="10" fill="none"/><path d="M63.434 201.66l10.488 7.953" stroke-width="1.2" stroke="#00f" stroke-miterlimit="10" fill="none"/><path d="M58.785 190.36l8.39 6.363" stroke-width="1.2" stroke="#000" stroke-miterlimit="10" fill="none"/><path d="M67.176 196.723l8.39 6.363M73.922 209.613l12.133-5.11" stroke-width="1.2" stroke="#00f" stroke-miterlimit="10" fill="none"/><path d="M86.055 204.504l12.132-5.106" stroke-width="1.2" stroke="#000" stroke-miterlimit="10" fill="none"/><path d="M69.922 203.113h8v13h-8zm0 0" fill="#fff"/><use xlink:href="#b" x="69.922" y="213.015" fill="#00f"/><path d="M98.188 199.398l20.976 15.903M104.027 196.05l16.782 12.727M101.473 173.277l-3.285 26.12M119.164 215.3l12.133-5.105" stroke-width="1.2" stroke="#000" stroke-miterlimit="10" fill="none"/><path d="M131.297 210.195l12.133-5.11M143.43 205.086l1.64-13.06" stroke-width="1.2" stroke="#00f" stroke-miterlimit="10" fill="none"/><path d="M145.07 192.027l1.645-13.062" stroke-width="1.2" stroke="#000" stroke-miterlimit="10" fill="none"/><path d="M137.613 201.703l1.313-10.45" stroke-width="1.2" stroke="#00f" stroke-miterlimit="10" fill="none"/><path d="M138.926 191.254l1.312-10.45" stroke-width="1.2" stroke="#000" stroke-miterlimit="10" fill="none"/><path d="M139.43 198.586h8v13h-8zm0 0" fill="#fff"/><use xlink:href="#b" x="139.43" y="208.487" fill="#00f"/><path d="M146.715 178.965l-10.488-7.953" stroke-width="1.2" stroke="#000" stroke-miterlimit="10" fill="none"/><path d="M136.227 171.012l-10.493-7.953" stroke-width="1.2" stroke="#00f" stroke-miterlimit="10" fill="none"/><path d="M146.715 178.965l12.133-5.106" stroke-width="1.2" stroke="#000" stroke-miterlimit="10" fill="none"/><path d="M158.848 173.86l12.132-5.11" stroke-width="1.2" stroke="#f00" stroke-miterlimit="10" fill="none"/><path d="M125.734 163.06l-12.13 5.108" stroke-width="1.2" stroke="#00f" stroke-miterlimit="10" fill="none"/><path d="M113.605 168.168l-12.132 5.11" stroke-width="1.2" stroke="#000" stroke-miterlimit="10" fill="none"/><path d="M125.715 169.793l-9.707 4.086" stroke-width="1.2" stroke="#00f" stroke-miterlimit="10" fill="none"/><path d="M116.008 173.88l-9.707 4.085" stroke-width="1.2" stroke="#000" stroke-miterlimit="10" fill="none"/><path d="M121.734 156.56h8v13h-8zm0 0" fill="#fff"/><use xlink:href="#b" x="121.734" y="166.46" fill="#00f"/><path d="M170.98 168.75l10.49 7.953" stroke-width="1.2" stroke="#f00" stroke-miterlimit="10" fill="none"/><path d="M181.47 176.703l10.487 7.953" stroke-width="1.2" stroke="#000" stroke-miterlimit="10" fill="none"/><path d="M166.98 162.25h9v13h-9zm0 0" fill="#fff"/><use xlink:href="#a" x="166.98" y="172.151" fill="#f00"/><path d="M191.957 184.656l24.266-10.215M216.223 174.44L237.2 190.35M222.063 171.094l16.78 12.726M219.508 148.32l-3.285 26.12M237.2 190.348l24.265-10.215M261.465 180.133l3.285-26.12M255.648 176.746l2.625-20.894M264.75 154.012l-20.98-15.907M243.77 138.105l-24.262 10.215M243.75 144.836l-19.414 8.172" stroke-width="1.2" stroke="#000" stroke-miterlimit="10" fill="none"/></g></svg>
